X:279
T: Langolee
N: O'Farrell's Pocket Companion v.3 (Sky ed. p.127-8)
N: "Irish"
M: 6/8
L: 1/8
R: blank
Q: 180
K: D
d/B/| ABd d>ef| gba gfe| fdB A>Bd | {e}f>ge d2 :|
P:2
d| f2g a2a| bgb afd| dfa bc'd'| b/a/g/f/e/d/ dBA|
gbg faf| ede fdB| f e/d/c/B/ ABd| f>ge d2 :|
P:3
d/B/| ABd def| gba gfe| f/d/e/B/d/B/ A/G/F/E/D/g/ |
f/a/b/g/e/c/ d/B/A/G/F/E/| D/F/E/G/F/A/ B/d/c/e/d/f/|
g/f/g/b/a/g/ f2e| fdB ABd| f>ge d2 :|
P:4
a| f/e/d/e/f/g/ a/g/f/g/a/f/| bgb b/a/g/f/e/d/| dfa bc'd'|
b/a/g/f/e/d/ dBA| g/b/e/g/b/g/ f/a/d/f/a/f/| e/f/g/a/b/g/ fdB|
f e/d/c/B/ ABd|  f>ge d2 :|
P:5
A/G/| FAd FAd| faa afd| FAd FAd| e>fe ecA| FGA Bcd| efg abg|
fdB ABd| f>ge d2 :|
P:6
a| fga bge| afd cBA| aba afd| dcd ecA|1 FGA Bcd| efg abg|
f e/d/c/B/ ABd|  f>ge d2 :|2 fga bc'd' | b/a/g/f/e/d/ Bd/B/A/G/|
FGA Bbg| f>ge d2 ||
